X: 3
T: Calliope House   [D]
C: Dave Richardson
N: Originally in E, which works well on fiddle, but others might prefer D.
N: Calliope House is a folk center in Pittsburgh.
Z: John Chambers <jc:trillian.mit.edu>
M: 6/8
L: 1/8
K: D
|: zA | "D"dAA fAA | "A7"eAA "D"fAA | "Em"Bee e2d | "A"efd BdB | "D"ABA A2F | A2B d2e |
     |1 "G"faf fed | "A7"e3- e :|2 "G"faf "A7"edB | "D"d3- d |: fg | "D"a3 faa | "A7"eaa "D"[fd]aa | "G"g3 fgf |
     | "A7"efe edB | "D"ABA A2F | A2B d2e |1 "G"faf fed | "A7"e3- e :|2 "G"faf "A7"edB | "D"d3- d |]

%%sep 1 1 500

